img/icons/multi/gosuslugi.svg

<svg width="188" height="52" viewBox="0 0 188 52" fill="none" xmlns="http://www.w3.org/2000/svg">
<path d="M63.6002 30.594C63.5787 30.5392 63.5362 30.4928 63.4808 30.4675C63.4252 30.4423 63.3613 30.4423 63.3059 30.4592C62.3166 30.8215 60.6765 31.1164 59.3843 31.1164C56.557 31.1164 55.2095 30.3621 55.2095 26.0778C55.2095 22.6529 55.6232 21.0394 59.3843 21.0394C60.4505 21.0394 61.7406 21.191 62.9986 21.5533C63.1009 21.5828 63.2119 21.5365 63.2588 21.4438C63.6076 20.685 64.1144 19.4577 64.4874 18.5544C64.5391 18.4294 64.5881 18.3104 64.6337 18.2C64.6637 18.141 64.6637 18.0736 64.6381 18.0146C64.6124 17.9556 64.5612 17.9093 64.4972 17.8882C62.8427 17.3658 60.8683 17.0625 59.09 17.0625C53.1668 17.0625 50.5273 19.8219 50.5273 26.0147C50.5273 32.2959 53.1668 35.0974 59.09 35.0974C60.5742 35.0974 63.4995 34.7899 64.9109 34.2338C65.0218 34.1874 65.0815 34.0611 65.0388 33.9515L63.6002 30.594Z" fill="#0066B3"/>
<path d="M17.7852 17.7449C17.7852 17.6272 17.8814 17.5317 18 17.5317H30.1642C30.3162 17.5317 30.4189 17.687 30.3598 17.8273L28.8535 21.4093C28.8136 21.5039 28.7227 21.5469 28.6362 21.5384C28.6292 21.5391 28.622 21.5395 28.6148 21.5395H22.3405V34.4154C22.3405 34.5333 22.2443 34.6286 22.1256 34.6286H18C17.8814 34.6286 17.7852 34.5333 17.7852 34.4154V17.7449Z" fill="#0066B3"/>
<path fill-rule="evenodd" clip-rule="evenodd" d="M31.3789 26.0139C31.3789 19.572 33.6338 17.0625 39.4245 17.0625C45.2616 17.0625 47.5375 19.572 47.5375 26.0139C47.5375 32.5537 45.2616 35.0974 39.4245 35.0974C33.6338 35.0974 31.3789 32.5537 31.3789 26.0139ZM35.9644 26.0778C35.9644 30.6195 36.7861 31.3439 39.4245 31.3439C42.1134 31.3439 42.952 30.6195 42.952 26.0778C42.952 21.2421 42.0374 20.8118 39.4245 20.8118C36.8621 20.8118 35.9644 21.2421 35.9644 26.0778Z" fill="#0066B3"/>
<path d="M98.2565 30.594C98.2352 30.5392 98.1925 30.4928 98.1371 30.4675C98.0817 30.4423 98.0177 30.4423 97.9623 30.4592C96.9729 30.8215 95.3327 31.1164 94.0408 31.1164C91.2135 31.1164 89.8659 30.3621 89.8659 26.0778C89.8659 22.6529 90.2796 21.0394 94.0408 21.0394C95.1067 21.0394 96.3969 21.191 97.6551 21.5533C97.7573 21.5828 97.8682 21.5365 97.915 21.4438C98.2641 20.685 98.7709 19.4577 99.1439 18.5544C99.1953 18.4294 99.2444 18.3104 99.2902 18.2C99.3199 18.141 99.32 18.0736 99.2945 18.0146C99.2689 17.9556 99.2177 17.9093 99.1537 17.8882C97.4991 17.3658 95.5248 17.0625 93.7465 17.0625C87.8233 17.0625 85.1836 19.8219 85.1836 26.0147C85.1836 32.2959 87.8233 35.0974 93.7465 35.0974C95.2305 35.0974 98.1559 34.7899 99.5674 34.2338C99.6782 34.1874 99.738 34.0611 99.6953 33.9515L98.2565 30.594Z" fill="#EE2F53"/>
<path d="M101.866 34.6282H106.102C106.192 34.6282 106.278 34.5684 106.304 34.4832C106.957 32.4494 107.536 30.1599 108.026 27.6359C108.446 25.4809 108.703 23.4393 108.855 21.539H112.997V34.415C112.997 34.5326 113.093 34.6282 113.212 34.6282H117.337C117.456 34.6282 117.552 34.5326 117.552 34.415V17.7444C117.552 17.6267 117.456 17.5312 117.337 17.5312H104.746C104.63 17.5312 104.536 17.6208 104.531 17.7359C104.415 20.2898 104.141 23.1507 103.617 26.2544C103.106 29.2561 102.368 31.9634 101.66 34.3552C101.621 34.4917 101.724 34.6282 101.866 34.6282Z" fill="#EE2F53"/>
<path d="M140.258 17.5312C140.139 17.5312 140.043 17.6267 140.043 17.7444V34.415C140.043 34.5326 140.139 34.6282 140.258 34.6282H144.383C144.502 34.6282 144.598 34.5326 144.598 34.415V21.539H150.873C150.88 21.539 150.887 21.5386 150.894 21.5379C150.981 21.5465 151.072 21.5034 151.111 21.4088L152.618 17.8268C152.677 17.6865 152.574 17.5312 152.422 17.5312H140.258Z" fill="#EE2F53"/>
<path d="M67.0184 17.5317C66.8695 17.5317 66.7657 17.6773 66.817 17.8147L73.0853 34.6314C72.2008 36.4763 71.2181 38.4183 70.0942 40.583C70.0206 40.7247 70.1231 40.8961 70.284 40.8961H74.7432C74.8242 40.8961 74.8989 40.85 74.9355 40.7785C78.235 34.1171 80.6631 28.212 83.9828 17.8134C84.0281 17.676 83.9256 17.5317 83.7796 17.5317H79.6377C79.5416 17.5317 79.4568 17.5967 79.4303 17.6882C78.1524 22.1337 76.974 25.6133 75.608 28.9667L71.3972 17.67C71.3664 17.5869 71.2858 17.5317 71.1957 17.5317H67.0184Z" fill="#EE2F53"/>
<path d="M120.142 17.8142C120.091 17.6768 120.195 17.5312 120.344 17.5312H124.521C124.611 17.5312 124.691 17.5865 124.722 17.6695L128.933 28.9662C130.299 25.6127 131.477 22.1332 132.756 17.6877C132.782 17.5962 132.867 17.5312 132.963 17.5312H137.105C137.251 17.5312 137.353 17.6755 137.308 17.8129C133.988 28.2114 131.56 34.1164 128.26 40.778C128.224 40.8496 128.149 40.8955 128.068 40.8955H123.609C123.448 40.8955 123.346 40.7243 123.419 40.5826C124.543 38.4179 125.526 36.4759 126.41 34.6308L120.142 17.8142Z" fill="#EE2F53"/>
<path d="M165.571 17.5312H169.694C169.814 17.5312 169.909 17.6248 169.904 17.744V33.438C169.904 33.5316 169.849 33.6166 169.758 33.6465C167.847 34.3697 164.626 35.097 161.739 35.097C156.796 35.097 154.794 32.9529 154.696 27.4777C154.691 27.465 154.691 17.7695 154.691 17.7695V17.744C154.691 17.6248 154.786 17.5312 154.906 17.5312H159.029C159.149 17.5312 159.244 17.6248 159.244 17.744V27.3841C159.338 30.294 160.064 30.9919 162.564 30.9919C163.569 30.9919 164.463 30.8727 165.356 30.6259V17.744C165.356 17.6248 165.45 17.5312 165.571 17.5312Z" fill="#EE2F53"/>
</svg>

<svg width="188" height="52" fill="none" xmlns="http://www.w3.org/2000/svg"><path d="M63.6 30.594a.233.233 0 00-.12-.127.25.25 0 00-.174-.008c-.99.363-2.63.657-3.922.657-2.827 0-4.175-.754-4.175-5.038 0-3.425.414-5.039 4.175-5.039 1.066 0 2.357.152 3.615.514a.223.223 0 00.26-.11c.349-.758.855-1.985 1.228-2.889l.147-.354a.217.217 0 00.004-.185.232.232 0 00-.14-.127 18.738 18.738 0 00-5.408-.826c-5.923 0-8.563 2.76-8.563 8.953 0 6.28 2.64 9.082 8.563 9.082 1.484 0 4.41-.307 5.82-.863a.224.224 0 00.129-.282L63.6 30.594zM17.785 17.745c0-.118.096-.213.215-.213h12.164c.152 0 .255.155.196.295l-1.506 3.582a.21.21 0 01-.218.13.216.216 0 01-.021 0H22.34v12.876a.214.214 0 01-.215.214H18a.214.214 0 01-.215-.214v-16.67z" fill="#0066B3"/><path fill-rule="evenodd" clip-rule="evenodd" d="M31.379 26.014c0-6.442 2.255-8.951 8.046-8.951 5.837 0 8.113 2.509 8.113 8.95 0 6.54-2.276 9.084-8.113 9.084-5.791 0-8.046-2.543-8.046-9.083zm4.585.064c0 4.541.822 5.266 3.46 5.266 2.69 0 3.528-.725 3.528-5.266 0-4.836-.915-5.266-3.527-5.266-2.563 0-3.46.43-3.46 5.266z" fill="#0066B3"/><path d="M98.257 30.594a.232.232 0 00-.295-.135c-.99.363-2.63.657-3.921.657-2.828 0-4.175-.754-4.175-5.038 0-3.425.414-5.039 4.175-5.039 1.066 0 2.356.152 3.614.514a.223.223 0 00.26-.11c.35-.758.856-1.985 1.229-2.889l.146-.354a.218.218 0 00.004-.185.232.232 0 00-.14-.127 18.738 18.738 0 00-5.407-.826c-5.924 0-8.563 2.76-8.563 8.953 0 6.28 2.64 9.082 8.563 9.082 1.484 0 4.409-.307 5.82-.863a.224.224 0 00.128-.282l-1.438-3.358zm3.609 4.034h4.236c.09 0 .176-.06.202-.145.653-2.034 1.232-4.323 1.722-6.847a54.55 54.55 0 00.829-6.097h4.142v12.876c0 .118.096.213.215.213h4.125a.214.214 0 00.215-.213v-16.67a.214.214 0 00-.215-.214h-12.591c-.116 0-.21.09-.215.205a70.383 70.383 0 01-.914 8.518c-.511 3.002-1.249 5.71-1.957 8.101a.214.214 0 00.206.273zm38.392-17.097a.214.214 0 00-.215.213v16.671c0 .118.096.213.215.213h4.125a.214.214 0 00.215-.213V21.539h6.275l.021-.001a.209.209 0 00.217-.13l1.507-3.581a.213.213 0 00-.196-.296h-12.164zm-73.24.001a.211.211 0 00-.201.283l6.268 16.816a209.979 209.979 0 01-2.99 5.952.214.214 0 00.189.313h4.46a.217.217 0 00.192-.117c3.299-6.662 5.727-12.567 9.047-22.966a.215.215 0 00-.203-.281h-4.142a.217.217 0 00-.208.156c-1.278 4.446-2.456 7.925-3.822 11.279l-4.21-11.297a.214.214 0 00-.202-.138h-4.178zm53.124.282a.212.212 0 01.202-.283h4.177c.09 0 .17.056.201.139l4.211 11.296c1.366-3.353 2.544-6.833 3.823-11.278a.216.216 0 01.207-.157h4.142c.146 0 .248.145.203.282-3.32 10.398-5.748 16.303-9.048 22.965a.216.216 0 01-.192.117h-4.459a.215.215 0 01-.19-.312 208.103 208.103 0 002.991-5.952l-6.268-16.817zm45.429-.283h4.123c.12 0 .215.094.21.213v15.694a.215.215 0 01-.146.209c-1.911.723-5.132 1.45-8.019 1.45-4.943 0-6.945-2.144-7.043-7.62-.005-.012-.005-9.707-.005-9.707v-.026c0-.12.095-.213.215-.213h4.123c.12 0 .215.094.215.213v9.64c.094 2.91.82 3.608 3.32 3.608 1.005 0 1.899-.12 2.792-.366V17.744c0-.12.094-.213.215-.213z" fill="#EE2F53"/></svg>
